X:12
M:C|
L:1/8
K:A
e|c>A A/A/A cA cA|BF F/F/F BF Bd|cA A/A/A cAcA|B>FB.G A2A,:|
|:C|A,CDC ACDC|A,CDC B,CDF|A,CDC ACDC|DFEG A2A:|
|:d|ceAe ceAc|BF dF BFBd|ceAe ceAc|BFBG A2A:|
||c|A/B/c/d/ ec acec|A/B/c/d/ ec acBc|A/B/c/d/ ec acea|g/a/b ec a2ac|

